X: 4196
M: 6/8
L: 1/8
K: D
|:\
|:\
d2f afd | cec ABc | d2f afd | g3  f2g |\
agf gfe | fed efg | fed Adc | d3- d2A :|


